X: 1837
T: Rita Croker's Polka
B: australian traditional tunes wiki
M:2/4
L:1/8
R: Polka
Q: 1/4=100
K:D
V:1 
|:"D"fd d/c/d/f/|"Em"eB Be/d/|"A7"cB c>B|"D"(3B/c/B/AA2|
fd d/c/d/f/|"Em"eB Be/d/|"A7"cA Bc|(3e/f/e/"D"dd2:|
|:"D"F/A/d/A/ F/A/d/f/|"Em"eB Be/d/|"A7"cB c>B|"D"(3B/c/B/A AA/G/|
"D"F/A/d/A/ F/A/d/f/|"Em"eB Be/d/|"A7"cA Bc|(3e/f/e/"D"dd2:|
% abcbook-tune_id 6342d53acf5a7673477cbf0e


% abcbook-boost 0
% abcbook-tablature 
% abcbook-transpose 
% abcbook-lastupdated 1665324386992
% abcbook-soundfonts 
% abcbook-repeats 1
% NFF Book 2017

